source/img/second-step.svg

<svg width="176" height="90" viewBox="0 0 176 90" fill="none" xmlns="http://www.w3.org/2000/svg">
<mask id="mask0" mask-type="alpha" maskUnits="userSpaceOnUse" x="50" y="0" width="90" height="90">
<path d="M138.944 45.1138C142.898 59.6783 135.456 69.1568 121.502 80.4847C116.386 84.8772 101.874 92.7374 84.7582 89.0384C63.363 84.4148 71.9677 74.474 56.6189 60.603C41.2702 46.7321 55.2236 13.9042 71.9677 6.73756C88.7119 -0.429085 108.247 -3.89682 121.502 6.73756C134.758 17.3719 134.991 30.5493 138.944 45.1138Z" fill="#F4F9FC"/>
</mask>
<g mask="url(#mask0)">
<path d="M138.944 45.1138C142.898 59.6783 135.456 69.1568 121.502 80.4847C116.386 84.8772 101.874 92.7374 84.7582 89.0384C63.363 84.4148 71.9677 74.474 56.6189 60.603C41.2702 46.7321 55.2236 13.9042 71.9677 6.73756C88.7119 -0.429085 108.247 -3.89682 121.502 6.73756C134.758 17.3719 134.991 30.5493 138.944 45.1138Z" fill="#F4FBFF"/>
</g>
<path d="M17.1768 73.3809C13.2412 73.3809 10.2451 72.1621 8.18848 69.7246C6.15723 67.2617 5.1416 63.6689 5.1416 58.9463C5.1416 58.9463 5.1416 58.5273 5.1416 57.6895C5.1416 54.6172 5.66211 51.0752 6.70312 47.0635C7.76953 43.0518 9.01367 39.4717 10.4355 36.3232C11.8828 33.1494 13.5586 30.1914 15.4629 27.4492C17.3926 24.707 19.5 22.3203 21.7852 20.2891C26.7109 15.9473 31.8018 13.7764 37.0576 13.7764C42.6182 13.7764 46.2236 16.4932 47.874 21.9268C48.4326 23.7549 48.7119 25.4941 48.7119 27.1445C48.7119 28.7949 48.623 30.6865 48.4453 32.8193C48.293 34.9268 47.7725 37.6943 46.8838 41.1221C45.9951 44.5244 44.8271 47.7998 43.3799 50.9482C41.9326 54.0713 40.2568 57.0039 38.3525 59.7461C36.4736 62.4883 34.4043 64.875 32.1445 66.9062C27.2949 71.2227 22.3057 73.3809 17.1768 73.3809ZM41.1328 25.0879C41.1328 20.8477 39.5205 18.7275 36.2959 18.7275C33.249 18.7275 29.8848 21.0508 26.2031 25.6973C22.7754 30.0645 19.7793 35.498 17.2148 41.998C14.5488 48.752 13.0127 55.0107 12.6064 60.7744C12.4541 63.1611 12.7969 65.04 13.6348 66.4111C14.4727 67.7568 15.6152 68.4297 17.0625 68.4297C18.5352 68.4297 19.9189 68.0615 21.2139 67.3252C22.5088 66.5635 23.8037 65.5225 25.0986 64.2021C26.4189 62.8818 27.7012 61.333 28.9453 59.5557C30.1895 57.7529 31.3828 55.8105 32.5254 53.7285C33.668 51.6211 34.7217 49.4121 35.6865 47.1016C36.6768 44.791 37.5527 42.4551 38.3145 40.0938C40.1934 34.1777 41.1328 29.4297 41.1328 25.8496V25.0879ZM82.2275 63.4023C82.9893 63.4023 83.3701 64.126 83.3701 65.5732C83.3701 67.0205 83.1543 68.2012 82.7227 69.1152C82.291 70.0293 81.6943 70.8037 80.9326 71.4385C79.3838 72.7334 77.3271 73.3809 74.7627 73.3809C72.9854 73.3809 70.9668 73.0254 68.707 72.3145C66.4473 71.5781 64.708 71.0449 63.4893 70.7148C62.2959 70.3848 61.1914 70.2197 60.1758 70.2197C59.1855 70.2197 58.373 70.3213 57.7383 70.5244C57.1289 70.7275 56.5576 70.9814 56.0244 71.2861C55.5166 71.5908 55.0215 71.9082 54.5391 72.2383C53.5234 72.9492 52.8252 73.3047 52.4443 73.3047C52.0889 73.3047 51.7334 73.2031 51.3779 73C51.0225 72.7969 50.6924 72.5303 50.3877 72.2002C49.6768 71.4385 49.3213 70.8418 49.3213 70.4102C49.3213 69.9785 49.5498 69.2041 50.0068 68.0869C50.4893 66.9697 51.4414 65.4336 52.8633 63.4785C54.2852 61.498 55.8594 59.5557 57.5859 57.6514C59.3125 55.7217 61.1406 53.8174 63.0703 51.9385C68.707 46.4033 72.3633 42.7471 74.0391 40.9697C75.7402 39.1924 77.2383 37.4277 78.5332 35.6758C81.3516 31.8926 82.7607 28.4775 82.7607 25.4307C82.7607 22.2061 81.6055 20.124 79.2949 19.1846C78.584 18.9053 77.6572 18.7656 76.5146 18.7656C75.3975 18.7656 74.2676 19.0957 73.125 19.7559C71.9824 20.3906 71.0176 21.2031 70.2305 22.1934C68.6055 24.1992 67.793 26.3701 67.793 28.7061C67.793 30.8389 68.4023 32.1592 69.6211 32.667C70.1289 32.8955 70.3828 33.2256 70.3828 33.6572C70.3828 34.5713 69.9385 35.4092 69.0498 36.1709C67.3994 37.5928 65.9902 38.3037 64.8223 38.3037C63.6543 38.3037 62.7148 38.0879 62.0039 37.6562C61.293 37.2246 60.6963 36.6533 60.2139 35.9424C59.249 34.5205 58.7666 32.9844 58.7666 31.334C58.7666 29.6582 58.9697 28.1602 59.376 26.8398C59.7822 25.5195 60.3662 24.2373 61.1279 22.9932C61.915 21.7236 62.8418 20.5303 63.9082 19.4131C65 18.2959 66.2188 17.3184 67.5645 16.4805C70.5352 14.6523 73.4424 13.7383 76.2861 13.7383C79.1553 13.7383 81.415 14.1191 83.0654 14.8809C84.7412 15.6426 86.0996 16.6328 87.1406 17.8516C89.0703 20.1875 90.0352 23.1582 90.0352 26.7637C90.0352 32.6797 87.166 38.6592 81.4277 44.7021C78.4062 47.876 75.3467 50.707 72.249 53.1953L65.0127 59.0225C61.0771 62.2725 58.3604 64.9385 56.8623 67.0205C58.8174 66.1572 60.4297 65.6875 61.6992 65.6113C62.9688 65.5098 63.9971 65.4844 64.7842 65.5352C65.5967 65.5605 66.4473 65.6113 67.3359 65.6875C69.6719 65.8906 71.5381 65.9922 72.9346 65.9922C74.3311 65.9922 75.5371 65.8652 76.5527 65.6113C77.5938 65.332 78.4316 65.0273 79.0664 64.6973C79.7266 64.3672 80.2725 64.0752 80.7041 63.8213C81.1357 63.542 81.6436 63.4023 82.2275 63.4023Z" fill="#FF689E"/>
<path d="M131.457 47.707C130.381 47.707 129.843 47.2917 129.843 46.4609C129.843 45.7057 130.117 44.9977 130.664 44.3369C131.646 43.1475 132.41 42.5716 132.958 42.6094H146.042C146.873 42.6094 147.288 42.987 147.288 43.7422C147.288 44.5352 147.014 45.262 146.467 45.9229C145.504 47.1123 144.673 47.707 143.975 47.707H131.457ZM146.25 60.5078C145.42 60.5078 145.004 59.9603 145.004 58.8652C145.004 57.6569 145.524 56.7507 146.562 56.1465L166.245 44.6768L146.024 32.9238C145.363 32.5462 145.033 32.1592 145.033 31.7627C145.033 31.3473 145.099 31.0264 145.231 30.7998C145.363 30.5544 145.542 30.3372 145.769 30.1484C146.222 29.7708 146.751 29.582 147.355 29.582C147.959 29.582 148.488 29.7142 148.941 29.9785L171.795 42.5811C173.325 43.4873 174.089 44.1953 174.089 44.7051C174.089 45.2148 173.513 45.7718 172.362 46.376L147.242 60.2246C146.883 60.4134 146.553 60.5078 146.25 60.5078Z" fill="#AAF0D1"/>
</svg>

<svg width="176" height="90" fill="none" xmlns="http://www.w3.org/2000/svg"><mask id="a" maskUnits="userSpaceOnUse" x="50" y="0" width="90" height="90"><path d="M138.944 45.114c3.954 14.564-3.488 24.043-17.442 35.37-5.116 4.393-19.628 12.253-36.744 8.554-21.395-4.623-12.79-14.564-28.14-28.435-15.348-13.87-1.394-46.699 15.35-53.865 16.744-7.167 36.279-10.635 49.534 0 13.256 10.634 13.489 23.811 17.442 38.376z" fill="#F4F9FC"/></mask><g mask="url(#a)"><path d="M138.944 45.114c3.954 14.564-3.488 24.043-17.442 35.37-5.116 4.393-19.628 12.253-36.744 8.554-21.395-4.623-12.79-14.564-28.14-28.435-15.348-13.87-1.394-46.699 15.35-53.865 16.744-7.167 36.279-10.635 49.534 0 13.256 10.634 13.489 23.811 17.442 38.376z" fill="#F4FBFF"/></g><path d="M17.177 73.38c-3.936 0-6.932-1.218-8.989-3.655-2.03-2.463-3.046-6.056-3.046-10.779V57.69c0-3.073.52-6.615 1.561-10.627 1.067-4.011 2.31-7.591 3.732-10.74a56.916 56.916 0 015.028-8.874c1.93-2.742 4.037-5.129 6.322-7.16 4.926-4.342 10.017-6.513 15.273-6.513 5.56 0 9.166 2.717 10.816 8.15.559 1.829.838 3.568.838 5.219 0 1.65-.089 3.541-.267 5.674-.152 2.108-.672 4.875-1.561 8.303a59.454 59.454 0 01-3.504 9.826 58.536 58.536 0 01-5.028 8.798c-1.878 2.742-3.948 5.129-6.207 7.16-4.85 4.317-9.84 6.475-14.968 6.475zm23.956-48.292c0-4.24-1.613-6.36-4.837-6.36-3.047 0-6.411 2.323-10.093 6.97-3.428 4.366-6.424 9.8-8.988 16.3-2.666 6.754-4.202 13.013-4.609 18.776-.152 2.387.19 4.266 1.029 5.637.838 1.346 1.98 2.019 3.428 2.019a8.265 8.265 0 004.15-1.105c1.296-.761 2.59-1.803 3.886-3.123 1.32-1.32 2.602-2.869 3.846-4.646a67.01 67.01 0 003.58-5.828 72.519 72.519 0 003.162-6.626 80.61 80.61 0 002.628-7.008c1.878-5.916 2.818-10.664 2.818-14.244v-.762zm41.095 38.314c.761 0 1.142.724 1.142 2.171 0 1.448-.216 2.628-.647 3.542a6.72 6.72 0 01-1.79 2.324c-1.55 1.294-3.606 1.942-6.17 1.942-1.778 0-3.796-.356-6.056-1.067-2.26-.736-3.999-1.27-5.218-1.6-1.193-.33-2.298-.494-3.313-.494-.99 0-1.803.101-2.438.304-.61.204-1.18.457-1.714.762-.507.305-1.002.622-1.485.952-1.016.711-1.714 1.067-2.095 1.067-.355 0-.71-.102-1.066-.305a4.156 4.156 0 01-.99-.8c-.711-.761-1.067-1.358-1.067-1.79 0-.431.229-1.206.686-2.323.482-1.117 1.434-2.653 2.856-4.609a65.929 65.929 0 014.723-5.827 115.08 115.08 0 015.484-5.713c5.637-5.535 9.293-9.19 10.97-10.968 1.7-1.778 3.198-3.542 4.493-5.294 2.819-3.783 4.228-7.199 4.228-10.245 0-3.225-1.155-5.307-3.466-6.246-.711-.28-1.638-.42-2.78-.42-1.118 0-2.247.33-3.39.99a9.62 9.62 0 00-2.894 2.438c-1.625 2.006-2.438 4.177-2.438 6.513 0 2.133.61 3.453 1.828 3.961.508.228.762.559.762.99 0 .914-.444 1.752-1.333 2.514-1.65 1.422-3.06 2.133-4.228 2.133-1.168 0-2.107-.216-2.818-.648a5.757 5.757 0 01-1.79-1.714c-.965-1.422-1.447-2.958-1.447-4.608 0-1.676.203-3.174.609-4.494.406-1.32.99-2.603 1.752-3.847a21.865 21.865 0 012.78-3.58 19.508 19.508 0 013.656-2.933c2.971-1.828 5.878-2.742 8.722-2.742 2.87 0 5.129.381 6.78 1.143 1.675.762 3.034 1.752 4.075 2.97 1.93 2.337 2.894 5.307 2.894 8.913 0 5.916-2.869 11.895-8.607 17.938-3.022 3.174-6.081 6.005-9.179 8.493l-7.236 5.828c-3.936 3.25-6.653 5.916-8.15 7.997 1.954-.863 3.567-1.332 4.836-1.409 1.27-.101 2.298-.127 3.085-.076.813.026 1.663.076 2.552.153 2.336.203 4.202.304 5.599.304 1.396 0 2.602-.127 3.618-.38 1.04-.28 1.879-.585 2.513-.915.66-.33 1.206-.622 1.638-.876.432-.279.94-.419 1.524-.419z" fill="#FF689E"/><path d="M131.457 47.707c-1.076 0-1.614-.415-1.614-1.246 0-.755.274-1.463.821-2.124.982-1.19 1.746-1.765 2.294-1.728h13.084c.831 0 1.246.378 1.246 1.133 0 .793-.274 1.52-.821 2.18-.963 1.19-1.794 1.785-2.492 1.785h-12.518zm14.793 12.8c-.83 0-1.246-.547-1.246-1.642 0-1.208.52-2.114 1.558-2.718l19.683-11.47-20.221-11.753c-.661-.378-.991-.765-.991-1.161 0-.416.066-.737.198-.963a2.402 2.402 0 012.124-1.218c.604 0 1.133.132 1.586.396l22.854 12.603c1.53.906 2.294 1.614 2.294 2.124s-.576 1.067-1.727 1.671l-25.12 13.849c-.359.188-.689.283-.992.283z" fill="#AAF0D1"/></svg>
